X:34
T:Kendal Reel. WI.034
M:C|
L:1/8
Q:1/2=100
S:Wm Irwin, 1838 MS, AGG’s Transcription
R:.Reel
O:England
A:Lake District
Z:vmp.Chris Partington.2005
K:F
c|cBAG F2F2|F2Ac fcAF|BAG^F G2G2|GABc defd|!
cBAG F2F2|F2Ac fcAF|BAG^F G2G2|GABc defd||!
A2ce f2fc|g2ge afcA|A2ce fcAF|B2dc BAGF|!
A2ce f2fc|g2ge afcA|cAcf dBdf|egce f3f||!
afc’f affa|ecge f2fg|afc’f affa|ecge f2fg|!
afc’f affa|ecbg ecce|ecgc” sic” acbg|fefa f2f|]

